_assets/images/gallery/s02e10-01.svg

<svg xmlns="http://www.w3.org/2000/svg" width="500" height="550" viewBox="0 0 500 550"><defs><clipPath id="a"><path d="M752.52 86.25c-14.26-14.68-18-38.48-18.59-38.3-30.43 11-63.14 16.58-90.46 34.78 4 20 8.88 61.37 8.33 98.12 1.8 14.88-2.22 43.36-.91 55.09 5.41 48.52 2.46 56.06 3.17 54.64 1.48 31.59-2.67 62.57-2.07 93.43.07 3.71 58.45 10.3 68-18C742 278.54 752.52 86.25 752.52 86.25z" fill="none"/></clipPath></defs><path d="M467.36 170.44c-22.24-32.92-75.74-84.54-92.64-94.14S294.07 49 294.07 49c-48.16 30.16-87.35 0-87.35 0s-66.91 17.62-83.34 28.88-90.84 87.42-90.84 94.26 53.44 56.43 62.85 56 35.49-17.11 35.91-12.83c3 106.81 3.39 245.74 2.36 250.07-1.82 7.65-1.09 17.66 3.64 18.54s42.22-7.43 57.87-4.15 176.13 4.51 179.41 2.33c2-1.32.68-149.85-3.54-267.22-.31-8.55 22.75 18 31.33 12.83 7.63-4.59 67.91-52.94 64.99-57.27z" fill="#262521" stroke="#262521" stroke-linecap="round" stroke-linejoin="round" stroke-width="3"/><path d="M372 210s-1-15.7-1-25.51-6.46-19.13-4.36-37.34l4.38-3.1m-240.6 68.69s1.68-50.44.88-53.77m75.42-107.46s4 48.55 43.68 46.73 43.67-46.73 43.67-46.73" fill="none" stroke="#636363" stroke-linecap="round" stroke-linejoin="round"/><g clip-path="url(#a)" fill="none" stroke="#998f8f" stroke-linecap="round" stroke-linejoin="round"><path d="M854.19 247.57l-369.5-14.6m364.3-12.24l-364.73-14.41m369.78 28.15l-369.5-14.61m364.15-25.72l-364.73-14.41m369.78 28.15l-369.5-14.61m364.15-25.68l-364.73-14.42m369.78 28.15l-369.5-14.6M848.09 141l-364.73-14.42m369.78 28.15l-369.51-14.6m370.56 200.03l-369.5-14.61m364.3-12.24L484.26 298.9m369.78 28.15l-369.5-14.6m364.15-25.73l-364.73-14.41m369.78 28.15l-369.5-14.6m364.75 80.66L484.26 352.1m369.78 28.15l-369.5-14.6m369.2-11.99l-369.5-14.6m364.15-78.89l-364.73-14.41m369.78 28.15l-369.5-14.61m363.84-145.13L483.06 99.76m369.77 28.15l-369.5-14.6m364.15-25.73L482.75 73.17m369.78 28.15l-369.5-14.6m364.3-13.05L482.6 59.26m369.48 1.56L482.57 46.21"/></g></svg>

<svg xmlns="http://www.w3.org/2000/svg" width="500" height="550" viewBox="0 0 500 550"><defs><clipPath id="a"><path d="M752.52 86.25c-14.26-14.68-18-38.48-18.59-38.3-30.43 11-63.14 16.58-90.46 34.78 4 20 8.88 61.37 8.33 98.12 1.8 14.88-2.22 43.36-.91 55.09 5.41 48.52 2.46 56.06 3.17 54.64 1.48 31.59-2.67 62.57-2.07 93.43.07 3.71 58.45 10.3 68-18C742 278.54 752.52 86.25 752.52 86.25z" fill="none"/></clipPath></defs><path d="M467.36 170.44c-22.24-32.92-75.74-84.54-92.64-94.14S294.07 49 294.07 49c-48.16 30.16-87.35 0-87.35 0s-66.91 17.62-83.34 28.88-90.84 87.42-90.84 94.26 53.44 56.43 62.85 56 35.49-17.11 35.91-12.83c3 106.81 3.39 245.74 2.36 250.07-1.82 7.65-1.09 17.66 3.64 18.54s42.22-7.43 57.87-4.15 176.13 4.51 179.41 2.33c2-1.32.68-149.85-3.54-267.22-.31-8.55 22.75 18 31.33 12.83 7.63-4.59 67.91-52.94 64.99-57.27z" fill="#262521" stroke="#262521" stroke-linecap="round" stroke-linejoin="round" stroke-width="3"/><path d="M372 210s-1-15.7-1-25.51-6.46-19.13-4.36-37.34l4.38-3.1M130.42 212.74s1.68-50.44.88-53.77M206.72 51.51s4 48.55 43.68 46.73 43.67-46.73 43.67-46.73" fill="none" stroke="#636363" stroke-linecap="round" stroke-linejoin="round"/><g clip-path="url(#a)" fill="none" stroke="#998f8f" stroke-linecap="round" stroke-linejoin="round"><path d="M854.19 247.57l-369.5-14.6M848.99 220.73l-364.73-14.41M854.04 234.47l-369.5-14.61M848.69 194.14l-364.73-14.41M853.74 207.88l-369.5-14.61M848.39 167.59l-364.73-14.42M853.44 181.32l-369.5-14.6M848.09 141l-364.73-14.42M853.14 154.73l-369.51-14.6M854.19 340.16l-369.5-14.61M848.99 313.31L484.26 298.9M854.04 327.05l-369.5-14.6M848.69 286.72l-364.73-14.41M853.74 300.46l-369.5-14.6M848.99 366.52L484.26 352.1M854.04 380.25l-369.5-14.6M853.74 353.66l-369.5-14.6M848.39 260.17l-364.73-14.41M853.44 273.91l-369.5-14.61M847.78 114.17L483.06 99.76M852.83 127.91l-369.5-14.6M847.48 87.58L482.75 73.17M852.53 101.32l-369.5-14.6M847.33 73.67L482.6 59.26M852.08 60.82L482.57 46.21"/></g></svg>
